X: 1
T: York Fusiliers  v.2
P: piffero secondo a0607
O: Cushing 1805
F: http://ancients.sudburymuster.org/mus/med/pdf/yorkmedC0.pdf
Z: 2020 John Chambers <jc:trillian.mit.edu>
M: 2/4
L: 1/16
K: D
z2 |:\
D2F2 D2F2 | F2Ad e2c2 | d4 e2f2 | gfed fedc |\
d2F2 D2F2 | F2Ad e2c2 | d2F2 EFGE | F8 :|
|:\
d2c2 A2c2 | d2f2 f4 | d2f2 a2f2 | gfed cdef |\
d2c2 A2c2 | d2f2 f4 | d2f2 a2fd | c8 :|
|:\
dfef dfef | dfge d2f2 | e2d2 fedc | d2f2 e2f2 |\
dfef dfef | dfge d2f2 | e2d2 fedc | Tc4 d4 :|
|:\
F2E2 D2F2 | F2E2 D2F2 | G2F2 E2D2 | cdcd c4 |\
f2e2 d2f2 | f2e2 d2f2 | g2b2 agfe |1 f8 :|2 f4 z2 |]
